**kern	**kern
*staff2	*staff1
*clefF4	*clefG2
*k[b-e-a-]	*k[b-e-a-]
*M2/4	*M2/4
*E-:	*E-:
=-	=-
*^	*
(8c#L	2B-	(16eLL
.	.	16ee)
8dJ	.	(16f
.	.	16ffJJ)
8e-L	.	(16gLL
.	.	16gg)
8fJ)	.	(16a-
.	.	16aa-JJ)
=120	=120	=120
(8dL	2B-	(16f#LL
.	.	16ff#)
8e-J	.	(16g
.	.	16ggJJ)
8f#L	.	(16aLL
.	.	16aa)
8gJ)	.	(16b-
.	.	16bb-JJ)
=121	=121	=121
(8C#L	2BB-	(16eLL
.	.	16ee)
8DJ	.	(16f
.	.	16ffJJ)
8E-L	.	(16gLL
.	.	16gg)
8FJ)	.	(16a-
.	.	16aa-JJ)
=122	=122	=122
(8DL	2BB-	(16f#LL
.	.	16ff#)
8E-J	.	(16g
.	.	16ggJJ)
8F#L	.	(16aLL
.	.	16aa)
8GJ)	.	(16b-
.	.	16bb-JJ)
=123	=123	=123
8r	2BB-	(16ee-LL
.	.	16eee-)
4F 4A-	.	(16dd
.	.	16dddJJ)
.	.	(16ccLL
.	.	16ccc)
8F 8A-	.	(16b-
.	.	16bb-JJ)
=124	=124	=124
8r	2AA-	(16ee-LL
.	.	16eee-)
4BB- 4F	.	(16dd
.	.	16dddJJ)
.	.	(16ccLL
.	.	16ccc)
8BB- 8F	.	(16b-
.	.	16bb-JJ)
*v	*v	*
=125	=125
8r	(16ee-LL
.	16eee-)
8GG 8BB- 8E-	(16b-
.	16bb-JJ)
8r	(16ccLL
.	16ccc)
8AA- 8C 8E-	(16f
.	16ffJJ)
=126	=126
8r	(16b-LL
.	16bb-)
8BB- 8E- 8G	(16e-
.	16ee-JJ)
8r	(16a-LL
.	16aa-)
8BB 8F 8A-	(16d
.	16ddJJ)
=127	=127
2C 2E- 2G- 2A	(16e-LL
.	16ee-)
.	(16g-
.	16gg-JJ)
.	(16aLL
.	16aa)
.	(16cc
.	16cccJJ)
=	=
*-	*-
